Adwaita++-Dark/actions/16/mail-reply-all.svg

<svg height="16" width="16" xmlns="http://www.w3.org/2000/svg">
  <g fill="#e6ddff">
    <path d="m9 1.5v2.5h2c3 0 5 2.13 5 5.25 0 3.25-4 4.75-4 4.75s1.87-2.65 1.44-4c-.37-1.13-1.58-2-2.94-2h-1.5v2.5l-6.5-4.5z"/>
    <path d="m6.5 1.5-6.5 4.5 6.5 4.5v-1.0391l-5-3.4609 5-3.4609z"/>
  </g>
</svg>

<svg xmlns="http://www.w3.org/2000/svg" width="16" height="16" version="1.1">
 <path style="fill:#E6DDFF" d="M 9,1.5 V 4 H 11 C 14,4 16,6.13 16,9.25 16,12.5 12,14 12,14 12,14 13.87,11.35 13.44,10 13.07,8.87 11.86,8 10.5,8 H 9 V 10.5 L 2.5,6 Z"/>
 <path style="fill:#E6DDFF" d="M 6.5,1.5 0,6 6.5,10.5 V 9.4609 L 1.5,6 6.5,2.5391 Z"/>
</svg>
